X: 1
T: Martin Wynne's
M: 4/4
L: 1/8
R: reel
K: Gmaj
dc|:BGAG EDB,E|DEGB AEGF|E ~B,3 G,A,B,D|(3EFE AB c2 dc|
BGAG EDB,E|DEGB AEGF|E ~B,3 G,A,B,D|EAAc BGGA:|
|:B2 dB cedc|BGDG EAAc|B(d{e}dB) dega|b~g3 e(a{b}ag)|
b~g3 aegf|eBdB GA (3Bcd|eBdB cBAG|(3 EFG Ac BGGA:||
